X:893
T:Farewell to the creeks
R:March
S:Richard Darsie's web page
Z:Transcription, chords:Mike Long
M:6/8
L:1/8
K:G
g|\
"G"d2B B>AG|"C"c>de "G"d2c|"G"B>cd G>Bd|"G"d>cB "D"A2g|\
"G"d2B B>AG|"C"c>de "G"d2c|
"G"B>cd "(C)"d>cB|"D"A2d "G"G2:|\
|:A|\
"G"B2G "C"c>de|"G"d2B B>AG|"C"c>de "G"B>cd|"G"d>cB "D"A2G|
"G"B2G "C"c>de|"G"d2B B>AG|"G"B>cd "(C)"d>cB|"D"A2d "G"G2:|\
|:d|\
"G"g2d "C"e>fg|"G"d2e d>BG|
"C"c>de "G"B>cd|"G"d>cB "D"A2d|\
"G"g2d "C"e>fg|"G"d2e d>BG|"G"B>cd "(C)"d>cB|"D"A2d "G"G2:|
